Origami/22x22/apps/putty.svg

<svg width="22" height="22" version="1.1" viewBox="0 0 22 22" xmlns="http://www.w3.org/2000/svg">
 <g transform="translate(-1,-1)">
  <rect transform="matrix(0,-1,-1,0,0,0)" x="-16.5" y="-19" width="12" height="9" rx=".75" ry=".75" style="opacity:.2"/>
  <rect transform="matrix(0,-1,-1,0,0,0)" x="-16" y="-19" width="12" height="9" rx=".75" ry=".75" style="fill:#8e8e8e"/>
  <rect transform="matrix(0,-1,-1,0,0,0)" x="-14.5" y="-22" width="12" height="15" rx=".75" ry=".75" style="opacity:.2"/>
  <rect transform="matrix(0,-1,-1,0,0,0)" x="-14" y="-22" width="12" height="15" rx=".75" ry=".75" style="fill:#4f4f4f"/>
  <rect transform="matrix(0,-1,-1,0,0,0)" x="-12" y="-20" width="8" height="11" rx="0" ry="0" style="fill:#266ad7"/>
  <rect transform="matrix(0,-1,-1,0,0,0)" x="-22.5" y="-14" width="12" height="9" rx=".75" ry=".75" style="opacity:.2"/>
  <rect transform="matrix(0,-1,-1,0,0,0)" x="-22" y="-14" width="12" height="9" rx=".75" ry=".75" style="fill:#8e8e8e"/>
  <rect transform="matrix(0,-1,-1,0,0,0)" x="-20.5" y="-17" width="12" height="15" rx=".75" ry=".75" style="opacity:.2"/>
  <rect transform="matrix(0,-1,-1,0,0,0)" x="-20" y="-17" width="12" height="15" rx=".75" ry=".75" style="fill:#4f4f4f"/>
  <rect transform="matrix(0,-1,-1,0,0,0)" x="-18" y="-15" width="8" height="11" rx="0" ry="0" style="fill:#ffbe47"/>
  <path d="m2.75 8c-0.4155 0-0.75 0.3345-0.75 0.75v0.5c0-0.4155 0.3345-0.75 0.75-0.75h13.5c0.416 0 0.75 0.3345 0.75 0.75v-0.5c0-0.4155-0.334-0.75-0.75-0.75z" style="fill:#ffffff;opacity:.1"/>
  <path d="m7.75 2c-0.4155 0-0.75 0.3345-0.75 0.75v0.5c0-0.4155 0.3345-0.75 0.75-0.75h13.5c0.416 0 0.75 0.3345 0.75 0.75v-0.5c0-0.4155-0.334-0.75-0.75-0.75z" style="fill:#ffffff;opacity:.1"/>
 </g>
</svg>

<svg xmlns="http://www.w3.org/2000/svg" width="22" height="22" version="1.1" viewBox="0 0 22 22">
 <g transform="translate(-1,-1)">
  <rect style="opacity:0.2" width="12" height="9" x="-16.5" y="-19" rx=".75" ry=".75" transform="matrix(0,-1,-1,0,0,0)"/>
  <rect style="fill:#8e8e8e" width="12" height="9" x="-16" y="-19" rx=".75" ry=".75" transform="matrix(0,-1,-1,0,0,0)"/>
  <rect style="opacity:0.2" width="12" height="15" x="-14.5" y="-22" rx=".75" ry=".75" transform="matrix(0,-1,-1,0,0,0)"/>
  <rect style="fill:#4f4f4f" width="12" height="15" x="-14" y="-22" rx=".75" ry=".75" transform="matrix(0,-1,-1,0,0,0)"/>
  <rect style="fill:#266ad7" width="8" height="11" x="-12" y="-20" rx="0" ry="0" transform="matrix(0,-1,-1,0,0,0)"/>
  <rect style="opacity:0.2" width="12" height="9" x="-22.5" y="-14" rx=".75" ry=".75" transform="matrix(0,-1,-1,0,0,0)"/>
  <rect style="fill:#8e8e8e" width="12" height="9" x="-22" y="-14" rx=".75" ry=".75" transform="matrix(0,-1,-1,0,0,0)"/>
  <rect style="opacity:0.2" width="12" height="15" x="-20.5" y="-17" rx=".75" ry=".75" transform="matrix(0,-1,-1,0,0,0)"/>
  <rect style="fill:#4f4f4f" width="12" height="15" x="-20" y="-17" rx=".75" ry=".75" transform="matrix(0,-1,-1,0,0,0)"/>
  <rect style="fill:#ffbe47" width="8" height="11" x="-18" y="-15" rx="0" ry="0" transform="matrix(0,-1,-1,0,0,0)"/>
  <path style="opacity:0.1;fill:#ffffff" d="M 2.75,8 C 2.3345,8 2,8.3345 2,8.75 V 9.25 C 2,8.8345 2.3345,8.5 2.75,8.5 H 16.25 C 16.666,8.5 17,8.8345 17,9.25 V 8.75 C 17,8.3345 16.666,8 16.25,8 Z"/>
  <path style="opacity:0.1;fill:#ffffff" d="M 7.75,2 C 7.3345,2 7,2.3345 7,2.75 V 3.25 C 7,2.8345 7.3345,2.5 7.75,2.5 H 21.25 C 21.666,2.5 22,2.8345 22,3.25 V 2.75 C 22,2.3345 21.666,2 21.25,2 Z"/>
 </g>
</svg>
